icons/glyphs/glyph-shuangpin.svg

<?xml version="1.0" encoding="UTF-8" standalone="no"?><svg height="16" viewBox="0 0 4.2333333 4.2333333" width="16" xmlns="http://www.w3.org/2000/svg"><sodipodi:namedview/><metadata><rdf:RDF><cc:Work><dc:format>image/svg+xml</dc:format><dc:type/><dc:title/></cc:Work></rdf:RDF></metadata><path d="m .08807377.11501742v.14891414.44442467h.43109772l-.45775159.36793957.09212972.1158864c.3925144.4898305.62719554.7939263.84075654 1.0974452-.36668215.8593723-.86914871 1.2504151-.86914871 1.2504151l-.1251574.083438.33317364.4948354.12226025-.085756s.49853152-.4985123.89812026-1.1913131c.097057.1569245.1915951.3071065.3088375.514536l.07243.1292135.2300346-.1292135c-.0147473.0098788-.1095126.1118303-.1095126.1118303l-.1251574.078803.3065198.5058445.1268957-.076485s.4487019-.3520519.8367003-.8187381c.1915707.2722325.4069227.541497.7445708.8141027l.1164649.0944475.3719955-.4618078-.1158865-.0944474c-.3747154-.3025303-.5873517-.5737567-.7602154-.860457.02276-.04109.046462-.078846.068373-.1274752.2669709-.5925054.518592-1.4333555.518592-2.10855463v-.29782825h-1.8987999-.1773063zm.43978922.59333881h.84307431c-.0220973.18478537-.0852919.51934467-.1639794.87841957-.1697714-.2261445-.33091024-.4412557-.59160061-.76658911zm1.43467471 0h .1135687c.0430815.24423893.1507832.86209777.3656219 1.41671227.0669959.1729462.1437388.3411078.2259787.5081622-.2020919.2921681-.3025082.3439218-.4641254.4751348l-.0243361-.0434576c-.1961231-.346986-.3555509-.6001402-.5191716-.8477097.2124885-.6681567.2787024-1.28413388.3024638-1.50884197zm.7225522 0h .6020303c-.0406049.37568887-.1644299.78388537-.2995664 1.16929457-.1563768-.4171237-.2492311-.89099717-.3024639-1.16929457z" fill="#f2f2f2"/></svg>

<?xml version="1.0" encoding="UTF-8" standalone="no"?>
<!-- Created with Inkscape (http://www.inkscape.org/) -->

<svg
     xmlns:dc="http://purl.org/dc/elements/1.1/"
     xmlns:cc="http://creativecommons.org/ns#"
     xmlns:rdf="http://www.w3.org/1999/02/22-rdf-syntax-ns#"
     xmlns:svg="http://www.w3.org/2000/svg"
     xmlns="http://www.w3.org/2000/svg"
     xmlns:sodipodi="http://sodipodi.sourceforge.net/DTD/sodipodi-0.dtd"
     xmlns:inkscape="http://www.inkscape.org/namespaces/inkscape"
     width="16"
     height="16"
     viewBox="0 0 4.2333333 4.2333333"
     version="1.1"
     id="svg8"
     inkscape:version="0.92+devel (c0065a33f9, 2017-07-22, custom)"
     sodipodi:docname="glyph-shuangpin.svg">
    <defs
         id="defs2">
        <style
             id="current-color-scheme"
             type="text/css">
      .ColorScheme-Text {
        color:#f2f2f2;
      }
      </style>
    </defs>
    <sodipodi:namedview
         id="base"
         pagecolor="#002466"
         bordercolor="#ffffff"
         borderopacity="0.38039216"
         inkscape:pageopacity="1"
         inkscape:pageshadow="2"
         inkscape:zoom="27.375"
         inkscape:cx="8"
         inkscape:cy="8"
         inkscape:document-units="px"
         inkscape:current-layer="svg8"
         inkscape:document-rotation="0"
         showgrid="false"
         inkscape:showpageshadow="false"
         borderlayer="true"
         inkscape:window-width="1920"
         inkscape:window-height="1051"
         inkscape:window-x="0"
         inkscape:window-y="0"
         inkscape:window-maximized="1"
         units="px" />
    <metadata
         id="metadata5">
        <rdf:RDF>
            <cc:Work
                 rdf:about="">
                <dc:format>image/svg+xml</dc:format>
                <dc:type
                     rdf:resource="http://purl.org/dc/dcmitype/StillImage" />
                <dc:title></dc:title>
            </cc:Work>
        </rdf:RDF>
    </metadata>
    <path
         inkscape:connector-curvature="0"
         id="path846"
         d="M 0.08807377,0.11501742 V 0.26393156 0.70835623 H 0.51917149 L 0.0614199,1.0762958 0.15354962,1.1921822 C 0.54606402,1.6820127 0.78074516,1.9861085 0.99430616,2.2896274 0.62762401,3.1489997 0.12515745,3.5400425 0.12515745,3.5400425 L 4.5e-8,3.6234805 0.33317369,4.1183159 0.45543394,4.0325599 c 0,0 0.49853152,-0.4985123 0.89812026,-1.1913131 0.097057,0.1569245 0.1915951,0.3071065 0.3088375,0.514536 l 0.07243,0.1292135 0.2300346,-0.1292135 C 1.950109,3.3656616 1.8553437,3.4676131 1.8553437,3.4676131 l -0.1251574,0.078803 0.3065198,0.5058445 0.1268957,-0.076485 c 0,0 0.4487019,-0.3520519 0.8367003,-0.8187381 0.1915707,0.2722325 0.4069227,0.541497 0.7445708,0.8141027 L 3.8613378,4.0655877 4.2333333,3.6037799 4.1174468,3.5093325 C 3.7427314,3.2068022 3.5300951,2.9355758 3.3572314,2.6488755 c 0.02276,-0.04109 0.046462,-0.078846 0.068373,-0.1274752 0.2669709,-0.5925054 0.518592,-1.4333555 0.518592,-2.10855463 V 0.11501742 H 2.0453965 1.8680902 Z M 0.52786299,0.70835623 H 1.3709373 C 1.34884,0.8931416 1.2856454,1.2277009 1.2069579,1.5867758 1.0371865,1.3606313 0.87604766,1.1455201 0.61535729,0.82018669 Z m 1.43467471,0 H 2.0761064 C 2.1191879,0.95259516 2.2268896,1.570454 2.4417283,2.1250685 2.5087242,2.2980147 2.5854671,2.4661763 2.667707,2.6332307 2.4656151,2.9253988 2.3651988,2.9771525 2.2035816,3.1083655 L 2.1792455,3.0649079 C 1.9831224,2.7179219 1.8236946,2.4647677 1.6600739,2.2171982 1.8725624,1.5490415 1.9387763,0.93306432 1.9625377,0.70835623 Z m 0.7225522,0 H 3.2871202 C 3.2465153,1.0840451 3.1226903,1.4922416 2.9875538,1.8776508 2.831177,1.4605271 2.7383227,0.98665363 2.6850899,0.70835623 Z"
         style="color:#f2f2f2;font-style:normal;font-variant:normal;font-weight:normal;font-stretch:normal;font-size:medium;line-height:normal;font-family:sans-serif;font-variant-ligatures:normal;font-variant-position:normal;font-variant-caps:normal;font-variant-numeric:normal;font-variant-alternates:normal;font-variant-east-asian:normal;font-feature-settings:normal;font-variation-settings:normal;text-indent:0;text-align:start;text-decoration:none;text-decoration-line:none;text-decoration-style:solid;text-decoration-color:#000000;letter-spacing:normal;word-spacing:normal;text-transform:none;writing-mode:lr-tb;direction:ltr;text-orientation:mixed;dominant-baseline:auto;baseline-shift:baseline;text-anchor:start;white-space:normal;shape-padding:0;clip-rule:nonzero;display:inline;overflow:visible;visibility:visible;isolation:auto;mix-blend-mode:normal;color-interpolation:sRGB;color-interpolation-filters:linearRGB;solid-color:#000000;solid-opacity:1;vector-effect:none;fill:currentColor;fill-opacity:1;fill-rule:nonzero;stroke:none;stroke-width:0.26458332;stroke-linecap:butt;stroke-linejoin:miter;stroke-miterlimit:4;stroke-dasharray:none;stroke-dashoffset:0;stroke-opacity:1;color-rendering:auto;image-rendering:auto;shape-rendering:auto;text-rendering:auto;enable-background:accumulate"
         inkscape:label="#1" />
</svg>
